movie.svg

<svg fill="currentColor" viewBox="0 0 24 24"><path d="m18 4 2 4h-3l-2-4h-2l2 4h-3l-2-4H8l2 4H7L5 4H4a2 2 0 0 0-2 2v12a2 2 0 0 0 2 2h16a2 2 0 0 0 2-2V4z"/></svg>

<svg  viewBox="0 0 24 24" fill="currentColor"><path  d="M18,4L20,8H17L15,4H13L15,8H12L10,4H8L10,8H7L5,4H4A2,2 0 0,0 2,6V18A2,2 0 0,0 4,20H20A2,2 0 0,0 22,18V4H18Z"/></svg>
